src/assets/images/nav/project.svg

<svg width="24" height="24" viewBox="0 0 24 24" fill="none" xmlns="http://www.w3.org/2000/svg">
<path fill-rule="evenodd" clip-rule="evenodd" d="M24 17.99L16.269 17.989L19 21.989H17.689L14.953 17.989H13L10.264 21.989H9L11.732 17.989H8.782V16.989H17V15.989H20V16.989H23V2.98901H6V3.43601H5V1.98901H24V17.989V17.99ZM6.759 8.99001C7.408 8.99001 8.052 8.77701 8.451 8.55401C9.206 8.13401 11.146 6.91101 11.936 6.43001C12.151 6.30001 12.432 6.34801 12.59 6.54401L12.599 6.55401C12.763 6.75901 12.744 7.05401 12.556 7.23401L9.185 10.448C8.664 10.946 8.363 11.631 8.332 12.35C8.237 14.557 8.071 19.262 8 21.184C7.984 21.634 7.614 21.99 7.164 21.99H7.163C6.719 21.99 6.377 21.642 6.327 21.202C6.216 20.22 5.998 17.923 5.9 16.99C5.86 16.606 5.621 16.377 5.316 16.376C5.012 16.374 4.793 16.602 4.768 16.984C4.706 17.905 4.502 20.233 4.426 21.205C4.392 21.646 4.029 21.99 3.586 21.99H3.585C3.133 21.99 2.762 21.634 2.743 21.181C2.646 18.841 2.374 12.218 2.374 12.218L1.087 14.549C0.947 14.803 0.642 14.913 0.372 14.809L0.371 14.808C0.143 14.72 0 14.503 0 14.268L0.022 14.111L1.266 9.71801C1.388 9.28801 1.781 8.99101 2.229 8.99101H6.759V8.99001ZM14 10.99H19V9.99001H14V10.99ZM14 8.99001H21V7.99001H14V8.99001ZM5.374 3.99001C6.615 3.99001 7.624 4.99801 7.624 6.24001C7.624 7.48201 6.615 8.49001 5.374 8.49001C4.132 8.49001 3.124 7.48201 3.124 6.24001C3.124 4.99801 4.132 3.99001 5.374 3.99001ZM14 6.99001H21V5.99001H14V6.99001Z" fill="white"/>
</svg>

<svg width="24" height="24" xmlns="http://www.w3.org/2000/svg" fill-rule="evenodd" clip-rule="evenodd"><path d="M24 17.99l-7.731-.001 2.731 4h-1.311l-2.736-4h-1.953l-2.736 4h-1.264l2.732-4h-2.95v-1h8.218v-1h3v1h3v-14h-17v.447h-1v-1.447h19v16zm-17.241-9c.649 0 1.293-.213 1.692-.436.755-.42 2.695-1.643 3.485-2.124.215-.13.496-.082.654.114l.009.01c.164.205.145.5-.043.68l-3.371 3.214c-.521.498-.822 1.183-.853 1.902-.095 2.207-.261 6.912-.332 8.834-.016.45-.386.806-.836.806h-.001c-.444 0-.786-.348-.836-.788-.111-.982-.329-3.279-.427-4.212-.04-.384-.279-.613-.584-.614-.304-.002-.523.226-.548.608-.062.921-.266 3.249-.342 4.221-.034.441-.397.785-.84.785h-.001c-.452 0-.823-.356-.842-.809-.097-2.34-.369-8.963-.369-8.963l-1.287 2.331c-.14.254-.445.364-.715.26l-.001-.001c-.228-.088-.371-.305-.371-.54l.022-.157 1.244-4.393c.122-.43.515-.727.963-.727h4.53zm7.241 2h5v-1h-5v1zm0-2h7v-1h-7v1zm-8.626-5c1.241 0 2.25 1.008 2.25 2.25s-1.009 2.25-2.25 2.25c-1.242 0-2.25-1.008-2.25-2.25s1.008-2.25 2.25-2.25zm8.626 3h7v-1h-7v1z"/></svg>
